X:1
T:Neither Do I Condemn Thee
T:Neither Do I Condemn Thee
T:James McGranahan
T:Daniel Webster Whittle, 1885
T:Public Domain Courtesy of the Cyber Hymnal™
C:James McGranahan
Z:Public Domain
Z:Courtesy of the Cyber Hymnal™
%%score ( 1 2 ) ( 3 4 )
L:1/8
Q:1/4=105
M:6/8
K:G
V:1 treble 
V:2 treble 
V:3 bass 
V:4 bass 
V:1
 [DB][DB][DB] [Ec]2 [DB] | [DB]3 [B,G]2 [B,G] | [DF]2 [EG] [FA]2 [GB] | [FAc]3- [FAc]2 [Fc] | %4
w: 1.~“Nei- ther do I con-|demn thee,” O|words of won- drous|grace; * Thy|
w: 2.~“Nei- ther do I con-|demn thee,” For|there is there- fore|now * No|
w: 3.~“Nei- ther do I con-|demn thee,” I|came not to con-|demn; * I|
w: 4.~“Nei- ther do I con-|demn thee,” O|praise the God of|grace; * O|
 [GB]2 [GB] [Bd]2 [GB] | ([GB]2 [FA]) [FA]2 [Fd] | [Fd]2 [FA] [GB]2 [G^c] | [Fd]6 || %8
w: sins were born up-|on~the * cross, Be-|lieve, and go in|peace.|
w: con- dem- na- tion|for * thee, As|at the cross you|bow.|
w: came from God to|save * thee, And|turn thee from thy|sin.|
w: praise His Son our|Sav- * ior, For|this His word of|peace.|
"^Refrain" [Gd][Gd][Gd] [Ge]2 [Gd] | [Gd]3 [GB]2 [GB] | (Be)[Gd] (dc)[GB] | [FA]3 [Ac]3 | %12
w: ||||
w: ||||
w: ||||
w: ||||
 [GB][GB][GB] [_Fd]2 [Fd] | [Ed]3 [Ec]3 | [DB]2 [B,G] [CA]2 !fermata![CA] | [B,G]6 |] %16
w: ||||
w: ||||
w: ||||
w: ||||
V:2
 x6 | x6 | x6 | x6 | x6 | x6 | x6 | x6 || x6 | x6 | G2 G2 x2 | x6 | x6 | x6 | x6 | x6 |] %16
V:3
 [G,,G,][G,,G,][G,,G,] [G,,G,]2 [G,,G,] | [G,,G,]3 [G,,D,]2 [G,,G,] | %2
w: ~ ~ ~ ~ ~|~ ~ ~|
 [D,A,]2 [D,A,] [D,A,]2 [D,D] | [D,D]3- [D,D]2 [F,D] | [G,D]2 [G,D] [G,D]2 [G,D] | %5
w: ~ ~ ~ ~|~ * ~|~ ~ ~ ~|
 ([D,D]2 [D,D]) [D,D]2 [D,A,] | [A,,A,]2 [A,,D] [A,,A,]2 [A,,A,] | (A,3 C3) || %8
w: ~ * ~ ~|~ ~ ~ ~|~ *|
 [G,B,][G,B,][G,B,] [G,C]2 [G,B,] | [G,B,]3 [G,D]2 [G,D] | (DC)[G,B,] (B,E)[G,D] | [D,D]6 | %12
w: “Nei- ther do I con-|demn thee,” O|sing * it o’er * and|o’er;|
 [G,D][G,D][G,D] [G,B,]2 [B,,G,] | [C,G,]3 [C,G,]3 | [D,G,]2 [D,G,] [D,F,]2 !fermata![D,F,] | %15
w: “Nei- ther do I con-|demn thee,|Go and sin no|
 [G,,D,G,]6 |] %16
w: more.”|
V:4
 x6 | x6 | x6 | x6 | x6 | x6 | x6 | D,6 || x6 | x6 | G,2 G,2 x2 | x6 | x6 | x6 | x6 | x6 |] %16

